X:1931
L:1/8
M:4/4
K:C
 acceed c' ead e!p! uec ud be cdeedD da .f ua ea e D Mve e!p!ace G D e | 
[M:6/8][K:G] fed[Q:1/8=160]"^D modal" .F3 AGF | ABA GED | EGE c2 A | dfd cAG |"^5" FEF AGF | 
 ABA GED | DED dAG | FEF GED ::"^9" c3 cAc | dcA GED | EGE c2 A | dfd cAB |"^13" ced cAc | 
 dcA GED | DED dAG | FAF GED ::"^17" dFF [AA,]FF | [AA,]FA GED | EGE cde | fed efg |"^21" faf gbg | 
 fdB AGF | EFE dAG | FEF GED :|

